app/images/icons/share_square.svg

<svg fill="none" height="19" viewBox="0 0 21 19" width="21" xmlns="http://www.w3.org/2000/svg"><path d="m19.9688 6.50781c.3515-.35156.3515-.8789 0-1.23047l-5.0626-4.781246c-.5273-.49218775-1.4062-.140625-1.4062.632816v2.53125c-5.16797 0-9.28125 1.01953-9.28125 6.08203 0 2.00391 1.23047 4.00781 2.60156 5.02731.42188.3164 1.01953-.0703.87891-.5976-1.44141-4.78128.70312-6.01174 5.80078-6.01174v2.49604c0 .7735.8789 1.125 1.4062.6329zm-6.4688 7.10159v2.3906h-11.25v-11.25h1.75781c.10547 0 .2461-.03516.31641-.10547.52734-.5625 1.125-.98437 1.79297-1.33594.38672-.21093.24609-.80859-.17578-.80859h-4.25391c-.949219 0-1.6875.77344-1.6875 1.6875v12.375c0 .9492.738281 1.6875 1.6875 1.6875h12.375c.9141 0 1.6875-.7383 1.6875-1.6875v-3.0937c0-.3165-.3164-.4922-.5977-.4219-.2109.1054-.5976.1758-.8085.1758-.1055 0-.2813-.0352-.3868-.0352-.2461-.0352-.457.1406-.457.4219z" fill="#117cb6"/></svg>

<svg width="21" height="19" viewBox="0 0 21 19" fill="none" xmlns="http://www.w3.org/2000/svg">
<path d="M19.9688 6.50781C20.3203 6.15625 20.3203 5.62891 19.9688 5.27734L14.9062 0.496094C14.3789 0.00390625 13.5 0.355469 13.5 1.12891V3.66016C8.33203 3.66016 4.21875 4.67969 4.21875 9.74219C4.21875 11.7461 5.44922 13.75 6.82031 14.7695C7.24219 15.0859 7.83984 14.6992 7.69922 14.1719C6.25781 9.39062 8.40234 8.16016 13.5 8.16016V10.6562C13.5 11.4297 14.3789 11.7812 14.9062 11.2891L19.9688 6.50781ZM13.5 13.6094V16H2.25V4.75H4.00781C4.11328 4.75 4.25391 4.71484 4.32422 4.64453C4.85156 4.08203 5.44922 3.66016 6.11719 3.30859C6.50391 3.09766 6.36328 2.5 5.94141 2.5H1.6875C0.738281 2.5 0 3.27344 0 4.1875V16.5625C0 17.5117 0.738281 18.25 1.6875 18.25H14.0625C14.9766 18.25 15.75 17.5117 15.75 16.5625V13.4688C15.75 13.1523 15.4336 12.9766 15.1523 13.0469C14.9414 13.1523 14.5547 13.2227 14.3438 13.2227C14.2383 13.2227 14.0625 13.1875 13.957 13.1875C13.7109 13.1523 13.5 13.3281 13.5 13.6094Z" fill="#117CB6"/>
</svg>
